X: 1
T: Pols i D
O: efter Paul Dahlin
Z: 2008 John Chambers <jc:trillian.mit.edu>
S: Personal transcription from tape made at a dance
M: 3/4
L: 1/8
K: D
F \
| "D"A>B AG FE | D>F A>d f2 | "A7"e>f gf ed |1,3 c>d cB A :|2,4 ce "D"d3 :|
|: f \
| "G"g2 B2 g2 | "D"f2  A2 f2 | "A7"e>f gf ed |   c>d cB Af \
| "G"g2 B2 g2 | "D"f>e df af | "A7"e>d ce ac | "D"d2 d3 :|
